svgs/light/luchador-mask.svg

<svg xmlns="http://www.w3.org/2000/svg" viewBox="0 0 448 512"><!-- Font Awesome Pro 6.0.0-alpha2 by @fontawesome - https://fontawesome.com License - https://fontawesome.com/license (Commercial License) --><path d="M224 0C100.25 0 0 100.25 0 224V352C0 440.375 71.625 512 160 512H288C376.375 512 448 440.375 448 352V224C448 100.25 347.75 0 224 0ZM416 352C416 422.625 358.625 480 288 480H160C89.375 480 32 422.625 32 352V224C32 118.125 118.125 32 224 32S416 118.125 416 224V352ZM226.5 226.25C225.625 225.5 222.25 225.5 221.375 226.25C213.25 188.25 182 160 144 160H76C69.375 160 64 165.375 64 172V202.75C64 249.75 99.75 288 144 288H166.375C159 300.25 153.875 311.5 150.625 320.875C119.75 325.5 96 351.875 96 384C96 419.5 125.375 448 160.875 448H287C322.5 448 351.875 419.5 351.875 384C351.875 351.875 328.25 325.5 297.25 320.875C294 311.375 288.875 300.25 281.5 288H304C348.25 288 384 249.75 384 202.75V172C384 165.375 378.625 160 372 160H304C266.125 160 234.75 188.25 226.5 226.25ZM262.75 320H185.25C192.125 305.25 203.75 286.625 224 266.75C244.25 286.625 255.875 305.25 262.75 320ZM144 256C117.5 256 96 232.125 96 202.75V192H144C170.5 192 192 215.875 192 245.25V254C191.375 254.75 190.75 255.25 190.25 256H144ZM320 384C320 401.625 305.625 416 288 416H160C142.375 416 128 401.625 128 384S142.375 352 160 352H288C305.625 352 320 366.375 320 384ZM352 202.75C352 232.125 330.5 256 304 256H257.75C257.25 255.25 256.625 254.75 256 254V245.25C256 215.875 277.5 192 304 192H352V202.75Z"/></svg>

<svg xmlns="http://www.w3.org/2000/svg" viewBox="0 0 448 512"><!--! Font Awesome Pro 6.3.0 by @fontawesome - https://fontawesome.com License - https://fontawesome.com/license (Commercial License) Copyright 2023 Fonticons, Inc. --><path d="M224 0C100.2 0 0 100.2 0 224v128c0 88.38 71.62 160 160 160h128c88.38 0 160-71.63 160-160V224C448 100.2 347.8 0 224 0zM416 352c0 70.63-57.38 128-128 128H160c-70.62 0-128-57.38-128-128V224c0-105.9 86.12-192 192-192s192 86.12 192 192V352zM226.5 226.2c-.875-.75-4.25-.75-5.125 0c-8.125-38-39.41-66.21-77.41-66.21L76 160C69.38 160 64 165.4 64 172v30.75C64 249.8 99.75 288 144 288h22.38c-7.375 12.25-12.5 23.5-15.75 32.88C119.8 325.5 96 351.9 96 384c0 35.5 29.38 64 64.88 64H287c35.5 0 64.88-28.5 64.88-64c0-32.13-23.62-58.5-54.63-63.13C293.1 311.4 288.9 300.2 281.5 288H304C348.2 288 384 249.8 384 202.8V172C384 165.4 378.6 160 372 160h-67.97C266.2 160 234.8 188.2 226.5 226.2zM262.8 320h-77.5C192.1 305.2 203.8 286.6 224 266.8C244.2 286.6 255.9 305.2 262.8 320zM144 256C117.5 256 96 232.1 96 202.8V192h48C170.5 192 192 215.9 192 245.2V254C191.4 254.8 190.8 255.2 190.2 256H144zM320 384c0 17.62-14.38 32-32 32H160c-17.62 0-32-14.38-32-32s14.38-32 32-32h128C305.6 352 320 366.4 320 384zM352 202.8C352 232.1 330.5 256 304 256h-46.25C257.2 255.2 256.6 254.8 256 254V245.2C256 215.9 277.5 192 304 192H352V202.8z"/></svg>
